X: 41837
T: Vine Tree, The
R: mazurka
M: 3/4
K: Gmajor
GA|B2 GF G2|AF DF A2|DE FG AB|c2 BA Bd|
B2 GF G2|AF DF A2|DE FG Ac|B2 G2:|
Bc|d2 g2 d2|d2 cB AG|FA c2c2|c2 BA Bc|
d2 g2 d2|d2 cB AG|FA dB cF|A2 G2:|

